X:13190
%231
T:Ad or haboker
M:4/4
L:1/8
Q:1/4=144
O:Israel
K:Am
"Am" A, C2 A, "Dm" D2 E2|"Am" A, C2 A, "Dm" DD E2 |"Am" C E2 C "C" G2 A2|
%Error : Guitar chord name not properly closed
"A"

%Error : Unrecognized character: m

%Error : Guitar chord name not properly closed
" E2 D2 "C" gB E2|"
"Am" A, C2 A, "Dm" D2 E2
%Error : Bar 3 is 9/8 not 4/4
| "Am" A, C2 A, "Dm" DD E2|"Am" C E2 C "C" G2 A2|
%Error : Guitar chord name not properly closed
"Am"

%Error : Guitar chord name not properly closed
" E2 D2 "C" E4|"
"Am" z E2 D "Dm" EF G2
%Error : Bar 6 is 9/8 not 4/4
| "Am" A2 G2 FE D2| z D2 C "Dm" DE F2| "C" G2 F2
"Am" ED C2|
"Am" A, C2 A, "Dm" D2 E2|"Am" A, C2 A, "Dm" DD E2|"Am" C E2 "C" C G2 A2|
%Error : Guitar chord name not properly closed
"Am"

%Error : Guitar chord name not properly closed
" E2 D2 a4|"
"Am" z A2 G A4|"C" z G2 F GF E2|"Am" z A2 G A2 B2|"C" z G2 F GF E2|
z"Dm" F2 E F2 A2|"Am" z E2 D ED C2|"Dm" z F2 E F2 A2 |"Am" E2 D2 E4|
"Am" A, C2 A, "Dm" D2 E2|"Am" A, C2 A, "Dm" DD E2 |"Am" C E2 C "C" G2 A2|
%Error : Guitar chord name not properly closed
"A"

%Error : Unrecognized character: m

%Error : Guitar chord name not properly closed
" E2 D2 "C" gB E2|"
"Am" A, C2 A, "Dm" D2 E2
%Error : Bar 24 is 9/8 not 4/4
|"Am" A, C2 A, "Dm" DD E2 |"Am" C E2 C "C" G2 A2|
%Error : Guitar chord name not properly closed
"A"

%Error : Unrecognized character: m

%Error : Guitar chord name not properly closed
" E2 D2 a4|"


